X:3
T:Aursundvals nr. II
R:vals
Z:Smaaviltlaget, paa Skuddhold, Track 10
M:3/4
L:1/8
K:D
BAG "A"|:\
"D"F2 E2 F2 | "D/F#"D3 D EF | "G"G2 GF GB | "Em"e3 d cB |\
"A"A2 c2 e2 | "A/E"A2 c2 e2 | "D"f2 d3 B | "A"A3 B AG |
"D"F2 E3 F | "D/F#"D3 D EF | "G"G2 GF GB | "Em"e3 d cB |\
"A"A2 c2 e2 | "A/E"A2 c2 e2 | "D"d2- "D/A"df "A7/G"ce |\
|1 "D"d3 B AG :|2 "D"d3 c de ||
"B"\
|: "D"fe de fe | "D/F#"d3 d cd | "G"e2 d3 G | "Em"B3 B ~B2 |\
"A"A2 c2 e2 | "A/E"(a3 b) a2 | "A"a2 g3 a | "D"f3 e de |
"D"fe de fe | "D/F#"d3 d cd | "G"e2 d3 G | "Em"B3 B ~B2 |\
"A"A2 c2 e2 | "A/E"(a3 b) a2 | "A"g/a/g f/g/f e/f/e \
| "D"d2- "D/A"df "A7/G"ce |1 "D"d3 c de :|2 "D"d3 |]
